icons/sliders.svg

<?xml version="1.0" encoding="UTF-8" standalone="no"?>
<svg
   xmlns:dc="http://purl.org/dc/elements/1.1/"
   xmlns:cc="http://creativecommons.org/ns#"
   xmlns:rdf="http://www.w3.org/1999/02/22-rdf-syntax-ns#"
   xmlns:svg="http://www.w3.org/2000/svg"
   xmlns="http://www.w3.org/2000/svg"
   id="svg4"
   viewBox="0 0 50 50"
   version="1.1"
   width="50"
   height="50">
  <metadata
     id="metadata10">
    <rdf:RDF>
      <cc:Work
         rdf:about="">
        <dc:format>image/svg+xml</dc:format>
        <dc:type
           rdf:resource="http://purl.org/dc/dcmitype/StillImage" />
        <dc:title></dc:title>
      </cc:Work>
    </rdf:RDF>
  </metadata>
  <defs
     id="defs8" />
  <path
     id="path822"
     d="M 10,6.25 C 6.25,6.25 6.25,10 6.25,10 v 30 c 0,0 0,3.75 3.75,3.75 h 30 c 3.75,0 3.75,-3.75 3.75,-3.75 V 10 c 0,0 0,-3.75 -3.75,-3.75 z m 6.25,7.5 c 1.783519,0.0028 3.430508,0.955424 4.322266,2.5 H 36.25 c 1.25,0 1.25,1.25 1.25,1.25 V 20 c 0,1.25 -1.25,1.25 -1.25,1.25 H 20.574219 c -0.892108,1.545179 -2.540002,2.497891 -4.324219,2.5 -2.761424,0 -5,-2.238576 -5,-5 0,-2.761424 2.238576,-5 5,-5 z m 17.5,12.5 c 2.761424,0 5,2.238576 5,5 0,2.761424 -2.238576,5 -5,5 -1.845736,0 -3.440418,-1.012133 -4.306641,-2.5 H 13.75 C 12.5,33.75 12.5,32.5 12.5,32.5 V 30 c 0,-1.25 1.25,-1.25 1.25,-1.25 h 15.693359 c 0.866223,-1.487867 2.460905,-2.5 4.306641,-2.5 z" />
</svg>

<?xml version="1.0" encoding="UTF-8"?>
<svg width="50" height="50" version="1.1" viewBox="0 0 50 50" xmlns="http://www.w3.org/2000/svg">
<path d="m10 6.25c-3.75 0-3.75 3.75-3.75 3.75v30s0 3.75 3.75 3.75h30c3.75 0 3.75-3.75 3.75-3.75v-30s0-3.75-3.75-3.75zm6.25 7.5c1.7835 0.0028 3.4305 0.95542 4.3223 2.5h15.678c1.25 0 1.25 1.25 1.25 1.25v2.5c0 1.25-1.25 1.25-1.25 1.25h-15.676c-0.89211 1.5452-2.54 2.4979-4.3242 2.5-2.7614 0-5-2.2386-5-5s2.2386-5 5-5zm17.5 12.5c2.7614 0 5 2.2386 5 5s-2.2386 5-5 5c-1.8457 0-3.4404-1.0121-4.3066-2.5h-15.693c-1.25 0-1.25-1.25-1.25-1.25v-2.5c0-1.25 1.25-1.25 1.25-1.25h15.693c0.86622-1.4879 2.4609-2.5 4.3066-2.5z"/>
</svg>
